src/components/buttons/PlayButtonNew/img/single.svg

<svg width="81" height="68" viewBox="0 0 81 68" fill="none" xmlns="http://www.w3.org/2000/svg">
<path d="M11.0712 54.6471C10.9174 54.6471 10.9174 54.6471 10.7637 54.6471C9.68731 54.4945 9.07225 53.5786 9.22602 52.5101C9.22602 52.3575 10.9174 42.2829 21.5272 43.504C22.6036 43.6567 23.2186 44.5725 23.2186 45.4884C23.0649 46.5569 22.1423 47.1675 21.2197 47.1675C14.454 46.4043 13.2239 52.3575 13.0701 52.968C12.6088 53.8839 11.84 54.6471 11.0712 54.6471Z" fill="#F8F8F5"/>
<path d="M17.2218 62.5848C16.453 62.5848 15.6842 62.1268 15.5304 61.3636C15.5304 61.211 12.3013 51.5943 22.1423 47.7781C23.0649 47.3202 24.1412 47.7781 24.6025 48.8467C24.91 49.7625 24.4488 50.8311 23.5262 51.289C17.2218 53.7313 18.9132 59.5319 19.067 60.2951C19.3745 61.211 18.9132 62.2795 17.8369 62.5848C17.6831 62.5848 17.5293 62.5848 17.2218 62.5848Z" fill="#F8F8F5"/>
<path d="M26.9091 67.4694C26.4479 67.4694 25.9866 67.3168 25.679 67.0115C25.5253 67.0115 18.1445 59.9898 24.9102 51.8996C25.5253 51.1363 26.7554 50.9837 27.5242 51.5943C28.293 52.2049 28.4468 53.426 27.8317 54.1893C23.3726 59.5319 28.1393 63.9586 28.293 64.1112C29.0619 64.8745 29.0619 65.943 28.4468 66.7062C27.8317 67.3168 27.3704 67.4694 26.9091 67.4694Z" fill="#F8F8F5"/>
<path d="M22.7573 39.6878C22.6035 39.6878 22.4498 39.6878 22.296 39.6878C8.14962 36.0243 8.76468 24.118 8.76468 24.118C8.76468 23.0495 9.68727 22.2862 10.7636 22.4389C11.84 22.4389 12.6088 23.3548 12.455 24.4233C12.455 24.7286 12.1475 33.2767 23.2186 36.177C24.1412 36.4823 24.7562 37.3982 24.6025 38.4667C24.4487 39.0773 23.6799 39.6878 22.7573 39.6878Z" fill="#F8F8F5"/>
<path d="M12.6087 25.0339C5.6893 25.0339 0 19.386 0 12.5169C0 5.64789 5.6893 0 12.6087 0V25.0339Z" fill="#F8F8F5"/>
<path d="M21.9881 8.5481C26.6011 11.1431 28.2925 16.9436 25.6785 21.3703C23.0645 25.9497 17.2214 27.6288 12.7622 25.0338L21.9881 8.5481Z" fill="#F8F8F5"/>
<path d="M69.3476 54.6471C69.5014 54.6471 69.5014 54.6471 69.6552 54.6471C70.7315 54.4945 71.3466 53.5786 71.1928 52.5101C71.1928 52.3575 69.5014 42.2829 58.8916 43.504C57.8153 43.6567 57.2002 44.5725 57.2002 45.4884C57.354 46.5569 58.2765 47.1675 59.1991 47.1675C65.9648 46.4043 67.1949 52.3575 67.3487 52.968C67.6562 53.8839 68.425 54.6471 69.3476 54.6471Z" fill="#F8F8F5"/>
<path d="M63.044 62.5847C63.8128 62.5847 64.5816 62.1267 64.7354 61.3635C64.7354 61.2109 67.9644 51.5942 58.1235 47.778C57.2009 47.4727 56.1245 47.9307 55.6632 48.8465C55.3557 49.7624 55.817 50.8309 56.7396 51.2889C63.044 53.7312 61.3525 59.5317 61.1988 60.295C60.8912 61.2109 61.3525 62.2794 62.4289 62.5847C62.5827 62.5847 62.8902 62.5847 63.044 62.5847Z" fill="#F8F8F5"/>
<path d="M53.5101 67.4694C53.9714 67.4694 54.4327 67.3168 54.7403 67.0115C54.894 67.0115 62.2748 59.9898 55.5091 51.8996C54.894 51.1363 53.6639 50.9837 52.8951 51.5943C52.1263 52.2049 51.9725 53.426 52.5875 54.1893C57.0467 59.5319 52.28 63.9586 52.1263 64.1112C51.3574 64.8745 51.3574 65.943 51.9725 66.7062C52.4338 67.3168 52.8951 67.4694 53.5101 67.4694Z" fill="#F8F8F5"/>
<path d="M57.5079 39.6878C57.6617 39.6878 57.8154 39.6878 57.9692 39.6878C72.1156 36.0243 71.5005 24.118 71.5005 24.118C71.5005 23.0495 70.5779 22.2862 69.5016 22.4389C68.4252 22.4389 67.6564 23.3548 67.8101 24.4233C67.8101 24.7286 68.1177 33.2767 57.0466 36.177C56.124 36.4823 55.5089 37.3982 55.6627 38.4667C55.9702 39.0773 56.7391 39.6878 57.5079 39.6878Z" fill="#F8F8F5"/>
<path d="M67.6567 25.0339C74.5762 25.0339 80.2655 19.386 80.2655 12.5169C80.2655 5.64789 74.7299 0 67.6567 0V25.0339Z" fill="#F8F8F5"/>
<path d="M58.4308 8.5481C53.8179 11.1431 52.1265 16.9436 54.7405 21.3703C57.3545 25.9497 63.1975 27.6288 67.6567 25.0338L58.4308 8.5481Z" fill="#F8F8F5"/>
<path d="M40.1328 60.7529C63.6589 60.7529 76.5751 25.9497 40.1328 25.9497C3.69053 25.9497 16.6068 60.7529 40.1328 60.7529Z" fill="#F8F8F5"/>
<path d="M30.9067 30.9871C33.7941 30.9871 36.1347 28.6635 36.1347 25.7971C36.1347 22.9308 33.7941 20.6072 30.9067 20.6072C28.0194 20.6072 25.6787 22.9308 25.6787 25.7971C25.6787 28.6635 28.0194 30.9871 30.9067 30.9871Z" fill="#F8F8F5"/>
<path d="M49.5122 30.9871C52.3995 30.9871 54.7402 28.6635 54.7402 25.7971C54.7402 22.9308 52.3995 20.6072 49.5122 20.6072C46.6248 20.6072 44.2842 22.9308 44.2842 25.7971C44.2842 28.6635 46.6248 30.9871 49.5122 30.9871Z" fill="#F8F8F5"/>
</svg>

<svg width="81" height="68" fill="none" xmlns="http://www.w3.org/2000/svg"><path d="M11.071 54.647h-.307c-1.077-.152-1.692-1.068-1.538-2.137 0-.152 1.691-10.227 12.301-9.006 1.077.153 1.692 1.069 1.692 1.984-.154 1.069-1.077 1.68-2 1.68-6.765-.764-7.995 5.19-8.149 5.8-.461.916-1.23 1.68-1.999 1.68z" fill="#F8F8F5"/><path d="M17.222 62.585c-.769 0-1.538-.458-1.692-1.221 0-.153-3.229-9.77 6.612-13.586.923-.458 2 0 2.46 1.069.308.916-.153 1.984-1.076 2.442-6.304 2.442-4.613 8.243-4.459 9.006a1.775 1.775 0 0 1-1.23 2.29h-.615z" fill="#F8F8F5"/><path d="M26.91 67.47c-.462 0-.923-.153-1.231-.459-.154 0-7.534-7.021-.769-15.111.615-.764 1.845-.916 2.614-.306.769.61.923 1.832.308 2.595-4.46 5.343.307 9.77.461 9.922.769.763.769 1.832.154 2.595-.615.61-1.077.763-1.538.763zM22.757 39.688h-.461C8.15 36.024 8.765 24.118 8.765 24.118c0-1.069.922-1.832 1.999-1.68 1.076 0 1.845.917 1.691 1.985 0 .306-.307 8.854 10.764 11.754.922.305 1.537 1.221 1.383 2.29-.153.61-.922 1.22-1.845 1.22z" fill="#F8F8F5"/><path d="M12.609 25.034C5.689 25.034 0 19.386 0 12.517 0 5.647 5.69 0 12.609 0v25.034zM21.988 8.548c4.613 2.595 6.305 8.396 3.69 12.822-2.614 4.58-8.457 6.259-12.916 3.664l9.226-16.486zM69.348 54.647h.307c1.076-.152 1.692-1.068 1.538-2.137 0-.152-1.692-10.227-12.301-9.006-1.077.153-1.692 1.069-1.692 1.984.154 1.069 1.076 1.68 2 1.68 6.765-.764 7.995 5.19 8.149 5.8.307.916 1.076 1.68 1.999 1.68z" fill="#F8F8F5"/><path d="M63.044 62.585c.769 0 1.538-.458 1.691-1.221 0-.153 3.23-9.77-6.611-13.586-.923-.305-2 .153-2.46 1.069-.308.915.153 1.984 1.076 2.442 6.304 2.442 4.612 8.243 4.459 9.006a1.775 1.775 0 0 0 1.23 2.29h.615z" fill="#F8F8F5"/><path d="M53.51 67.47c.461 0 .923-.153 1.23-.459.154 0 7.535-7.021.77-15.111-.616-.764-1.846-.916-2.615-.306-.769.61-.923 1.832-.308 2.595 4.46 5.343-.307 9.77-.46 9.922-.77.763-.77 1.832-.155 2.595.462.61.923.763 1.538.763zM57.508 39.688h.461c14.147-3.664 13.532-15.57 13.532-15.57 0-1.069-.923-1.832-2-1.68-1.076 0-1.845.917-1.69 1.985 0 .306.307 8.854-10.764 11.754-.923.305-1.538 1.221-1.384 2.29.307.61 1.076 1.22 1.845 1.22z" fill="#F8F8F5"/><path d="M67.657 25.034c6.92 0 12.609-5.648 12.609-12.517C80.266 5.647 74.73 0 67.656 0v25.034z" fill="#F8F8F5"/><path d="M58.43 8.548c-4.612 2.595-6.303 8.396-3.69 12.822 2.614 4.58 8.457 6.259 12.917 3.664L58.43 8.548zM40.133 60.753c23.526 0 36.442-34.803 0-34.803s-23.526 34.803 0 34.803z" fill="#F8F8F5"/><path d="M30.907 30.987c2.887 0 5.228-2.323 5.228-5.19 0-2.866-2.34-5.19-5.228-5.19s-5.228 2.324-5.228 5.19c0 2.866 2.34 5.19 5.228 5.19zM49.512 30.987c2.888 0 5.228-2.323 5.228-5.19 0-2.866-2.34-5.19-5.228-5.19-2.887 0-5.228 2.324-5.228 5.19 0 2.866 2.34 5.19 5.228 5.19z" fill="#F8F8F5"/></svg>
